X:1
T:The Ash Grove
C:Traditional (Welsh)
M:3/4
L:1/4
Q:1/4=80
K:G
D | G A B | c B A | G3 | G A B | c d c | B3 | c B c | d c B | A3 | B c d | e d c | d3 | B c d | e d c | B3 |]
w: Down | yon-der green | val-ley where | stream-lets me-an-der | when twi-light is | fad-ing I | pen-sive-ly | wan-der the | ash grove the | ash grove a- | lone I will | lin-ger when | sum-mer is | fade-ing a-way | how pleas-ant to | wea-ry and | worn to re-pose on the | bank by the ash grove a- |
